!!!COM:      Bach, Johann Sebastian
!!!CDT:      1685/03/31/-1750/07/28/
!!!OPR@@GER: Das wohltemperirte Clavier
!!!OVM@@GER: Band II
!!!OPR@ENG:  Well-Tempered Clavier
!!!OVM@ENG:  Book II
!!!OTL:      Prelude
!!!OKY:      B-flat minor
!!!ONM:      no. 22
!!!SCT:      BWV 891
!!!OMV:      1
**kern	**kern	**kern
*	*	*M2/2
*clefF4	*clefG2	*
*k[b-e-a-d-g-]	*k[b-e-a-d-g-]	*
*b-:	*b-:	*
*M2/2	*M2/2	*
*met(c|)	*met(c|)	*
*MM76	*MM76	*MM76
2BB-	8dd-	1ryy
.	8cc	.
.	8b-	.
.	8an	.
[2B-	4b-	.
.	4f	.
=2	=2	=2
2B-]	4g-	1ryy
.	4e-	.
2An	4c	.
.	4f	.
=3	=3	=3
*	*	*staff:14
*	*	*clefG2
*	*	*k[b-e-a-d-g-]
8B-	4d-	2r
8A-X	.	.
8G-	4B-	.
8F	.	.
8G-	4b-	8bb-
8F	.	8aa-
8E-	4b-	8gg-
8D-	.	8ff
=4	=4	=4
8E-	4b-	8gg-
8D-	.	8ff
8C	8an	8ee-
8BB-	8b-	8dd-
8AAn	4cc	8cc
8FF	.	8ff
8GGn	4cc	8ee-
8AA	.	8ff
=5	=5	=5
8BB-	4cc	4dd-
8C	.	.
8D-	8b-	4f
8E-	8an	.
4D-	[2b-	8r
.	.	8dd-
4G-	.	8cc
.	.	8dd-
=6	=6	=6
8C	8b-]	4ee-
8D-	8a-X	.
8E-	8g-	4b-
8F	8f	.
4E-	8g-	2cc
.	8e-	.
4A-	8f	.
.	[8g-	.
=7	=7	=7
4D-	8g-]	4dd-
.	8f	.
4C	8gn	4r
.	8an	.
4D-	8b-	2r
.	8cc	.
4BB-	8dd-	.
.	8b-	.
=8	=8	=8
4F	4cc	8aa-X
.	.	8ggn
4A-	4c	8ff
.	.	8een
8d-	[2f	4ff
8c	.	.
8B-	.	4cc
8A-	.	.
=9	=9	=9
8B-	2f]	4dd-
8Gn	.	.
8A-	.	4b-
8B-	.	.
8c	2en	4gn
8B-	.	.
8A-	.	4cc
8G	.	.
=10	=10	=10
[2F	8f	4a-
.	8en	.
.	8f	4f
.	8gn	.
8F]	8a-	4ff
8Gn	8b-	.
8A-	8cc	4ff
8F	8a-	.
=11	=11	=11
8Gn	8b-	4ff
8A-	8a-	.
4B-	8gn	8een
.	8a-	8ff
4En	8b-	4ggn
.	8cc	.
8F	8dd-	4gg
8G	8b-	.
=12	=12	=12
8A-	2cc	4ggn
8B-	.	.
8A-	.	8ff
8Gn	.	8gg
8F	4r	4aa-
8E-X	.	.
8D-	8ff	4aa-
8F	8cc	.
=13	=13	=13
2BB-	8dd-	4aa-
.	8ee-	.
.	8dd-	4ff
.	8cc	.
2r	8b-	4ggn
.	8a-	.
.	8gn	4bb-
.	8b-	.
=14	=14	=14
8r	4en	4bb-
8d-	.	.
8c	4gn	4een
8B-	.	.
8A-	4c	[2ff
8Gn	.	.
8F	4cc	.
8A-	.	.
=15	=15	=15
4D-	8b-	2ff]
.	8cc	.
4BB-	8dd-	.
.	8b-	.
4C	8gn	2een
.	8dd-	.
4CC	8cc	.
.	8b-	.
=16	=16	=16
8FF	2a-	4ff
8C	.	.
8Dn	.	4cc
8En	.	.
8F	4r	8a-
8G-X	.	8ee-X
8A-	4c-	8ddn
8F	.	8ee-
=17	=17	=17
2Dn	8B-	4ff
.	8cn	.
.	8dn	4b-
.	8e-	.
4r	8f	4a-
.	8g-	.
4BB-	8a-	[4ff
.	8f	.
=18	=18	=18
8EE-	2g-	4ff]
8BB-	.	.
8C	.	8ee-
8Dn	.	8ff
8E-	4r	4gg-
8F	.	.
8G-	[4g-	4b-
8E-	.	.
=19	=19	=19
4C	4g-]	8a-
.	.	8b-
4E-	4B--	8cc
.	.	8dd-
4C	4A-	8ee-
.	.	8ff
4AA-	4cc	8gg-
.	.	8ee-
=20	=20	=20
8DD-	4dd-	4ff
8AA-	.	.
8BB-	4e-	4g-
8C	.	.
8D-	4d-	4f
8E-	.	.
8F	4r	4dd-
8D-	.	.
=21	=21	=21
8G-	4r	2.b-
8A-	.	.
8G-	4d-	.
8F	.	.
8E-	[2g-	.
8D-	.	.
8C	.	8ee-
8E-	.	8dd-
=22	=22	=22
8AAn	4g-]	2.cc
8FF	.	.
8GGn	8f	.
8AA	8e-	.
8BB-	2d-	.
8C	.	.
8D-	.	[4b-
8BB-	.	.
=23	=23	=23
4E-	2c	8b-]
.	.	8cc
4C	.	8dd-
.	.	8ee-
4F	2r	8an
.	.	8gg-
4FF	.	8ff
.	.	8ee-
=24	=24	=24
4BB-	8r	8dd-
.	8B-	8ff
4r	8c	8ee-
.	8d-	8dd-
4r	8e-	8cc
.	8f	8b-
4c	8g-	8an
.	8e-	8cc
=25	=25	=25
8d-	4f	4b-
8c	.	.
8B-	4r	8dd-
8An	.	8cc
4B-	8dd-	4dd-
.	8cc	.
4F	8b-	4dd-
.	8an	.
=26	=26	=26
4G-	[2b-	4dd-
4E-	.	8cc
.	.	8dd-
4C	8b-]	4ee-
.	8an	.
4F	8gn	4ee-
.	8a	.
=27	=27	=27
4D-	4b-	4ee-
4BB-	4f	8dd-
.	.	8ee-
4B-	4d-	8ff
.	.	8aa-
4B-	8e-	8gg-
.	8f	8ff
=28	=28	=28
4B-	[2g-	8ee-
.	.	8dd-
8A-	.	8cc
8B-	.	8ee-
4c	8g-]	2a-
.	8f	.
4c	8e-	.
.	8g-	.
=29	=29	=29
4c	8f	2dd-
.	8e-	.
8B-	8d-	.
8c	8e-	.
4d-	8f	2r
.	8g-	.
4d-	8a-	.
.	8f	.
=30	=30	=30
4d-	2g-	8r
.	.	8b-
8c	.	8cc
8B-	.	8dd-
4c	4r	8ee-
.	.	8ff
4e-	4d-	8gg-
.	.	8ee-
=31	=31	=31
2A-	8c	8ff
.	8g-	8ee-
.	8f	8dd-
.	8e-	8cc
8r	[2f	4dd-
8D-	.	.
8E-	.	4a-
8F	.	.
=32	=32	=32
8G-	4f]	4b-
8A-	.	.
8B-	8e-	4g-
8G-	8d-	.
2A-	8c	4e-
.	8d-	.
.	8B-	4a-
.	8c	.
=33	=33	=33
8D-	4d-	4f
8F	.	.
8G-	4r	4d-
8A-	.	.
8B-	8b-	4dd-
8c	8a-	.
8d-	8g-	4dd-
8B-	8f	.
=34	=34	=34
8e-	4g-	4dd-
8f	.	.
8e-	4e-	8cc
8d-	.	8dd-
4c	8a-	4ee-
.	8g-	.
4A-	8f	4ee-
.	8e-	.
=35	=35	=35
2d-	8f	4ee-
.	8e-	.
.	8f	8dd-
.	8g-	8ee-
4r	8a-	4ff
.	8b-	.
4A-	8cc	4ff
.	8a-	.
=36	=36	=36
8B-	[1dd-	4ff
8A-	.	.
8Gn	.	8ee-
8F	.	8ff
8E-	.	8ggn
8D-	.	8aa-
8C	.	8bb-
8BB-	.	8gg
=37	=37	=37
8AA-	4dd-]	[1aa-
8BB-	.	.
8C	8ee-	.
8D-	8dd-	.
8E-	4cc	.
8F	.	.
8G-X	4ee-	.
8E-	.	.
=38	=38	=38
8F	4a-	1aa-_
8E-	.	.
8D-	8ff	.
8E-	8ee-	.
8F	4dd-	.
8Gn	.	.
8A-	4cc	.
8F	.	.
=39	=39	=39
8d-	2b-	4aa-]
8c	.	.
8B-	.	8ggn
8A-	.	8aa-
8Gn	4r	4bb-
8F	.	.
8E-	[4b-	[4dd-
8G	.	.
=40	=40	=40
8C	4b-]	4dd-]
8F	.	.
8E-	4a-	8cc
8D-	.	8dd-
8C	4r	4ee-
8BB-	.	.
8AA-	[4e-	[4g-X
8C	.	.
=41	=41	=41
4DD-	4e-]	8g-]
.	.	8f
4F	8d-	8gn
.	8c	8a-
4D-	8B-	8b-
.	8A-	8cc
4E-	8Gn	8dd-
.	8B-	8b-
=42	=42	=42
8A-	8A-	2cc
8Gn	8e-	.
8F	8f	.
8E-	8gn	.
4F	8a-	2r
.	8b-	.
4C	8cc	.
.	8a-	.
=43	=43	=43
4D-	4ff	8r
.	.	8ee-
4BB-	4r	8dd-
.	.	8cc
4GGn	2r	8b-
.	.	8a-
4E-	.	8gn
.	.	8b-
=44	=44	=44
8C	4r	2e-
8BB-	.	.
8AA-	4A-	.
8BB-	.	.
8C	4e-	4r
8Dn	.	.
8E-	4e-	4g-X
8C	.	.
=45	=45	=45
8Dn	4e-	4f
8C	.	.
8BB-	8dn	4b-
8C	8e-	.
8D	4f	4r
8E-	.	.
8F	4f	4a-
8D	.	.
=46	=46	=46
8E-	4f	4g-
8F	.	.
8G-	8e-	4cc-
8F	8f	.
8E-	4g-	4r
8D-X	.	.
8C-	4g-	4b-
8BB-	.	.
=47	=47	=47
8C-	4g-	4a-
8E-	.	.
8D-	8f	4dd-
8C-	8g-	.
8BB-	4a-	4r
8AA-	.	.
8GG-	[4a-	4cc-
8FF	.	.
=48	=48	=48
4GG-	8a-]	2b-
.	8a-	.
4AA-	8g-	.
.	8f	.
8BB-	4g-	2r
8GG-	.	.
8AA-	4d-	.
8BB-	.	.
=49	=49	=49
8C-	4e-	1r
8D-	.	.
8E-	4c-	.
8C-	.	.
8D-	4A-	.
8E-	.	.
8F	4d-	.
8D-	.	.
=50	=50	=50
8G-	2B-	4r
8A-	.	.
8G-	.	4dd-
8F	.	.
8E-	4r	4gg-
8F	.	.
8G-	4b-	4gg-
8E-	.	.
=51	=51	=51
8A-	2.cc-	4gg-
8B-	.	.
8A-	.	8ff
8G-	.	8gg-
8F	.	4aa-
8G-	.	.
8A-	4cc-	4aa-
8F	.	.
=52	=52	=52
8Dn	2.b-	4aa-
8BB-	.	.
8C	.	8gg-
8D	.	8ff
8E-	.	[2gg-
8F	.	.
8G-	4ee-	.
8E-	.	.
=53	=53	=53
8c-	4a-	4gg-]
8B-	.	.
8A-	4r	8ccc-
8B-	.	8bb-
2c-	4r	8aa-
.	.	8gg-
.	[4a-	8ff
.	.	8aa-
=54	=54	=54
1B-	8a-]	8ddn
.	8b-	8ccn
.	8a-	8dd
.	8g-	8ee-
.	8f	8ff
.	8e-	8gg-
.	8dn	8aa-
.	8f	8ff
=55	=55	=55
4r	4e-	8gg-
.	.	8ff
8E-	4r	8ee-
8F	.	8ddn
8G-	2r	4ee-
8E-	.	.
8G-	.	4b-
8B-	.	.
=56	=56	=56
8e-	1r	4cc-
8dn	.	.
2e-	.	4a-
.	.	4f
4dn	.	4b-
=57	=57	=57
8e-	2r	4g-
8d-X	.	.
8c-	.	4e-
8B-	.	.
8c-	8ee-	4ee-
8B-	8dd-	.
8A-	8cc-	4ee-
8G-	8b-	.
=58	=58	=58
8A-	8cc-	4ee-
8G-	8b-	.
8F	8a-	8ddn
8E-	8g-	8ee-
8Dn	4f	4ff
8BB-	.	.
8Cn	4b-	4ff
8D	.	.
=59	=59	=59
8E-	4g-	4ff
8F	.	.
8G-	4b-	8ee-
8A-	.	8ddn
4G-	8r	[2ee-
.	8g-	.
4c-	8f	.
.	8g-	.
=60	=60	=60
8F	4a-	8ee-]
8G-	.	8dd-X
8A-	4e-	8cc-
8B-	.	8b-
4A-	2f	8cc-
.	.	8a-
4d-	.	8b-
.	.	[8cc-
=61	=61	=61
4G-	2g-	8cc-]
.	.	8b-
4F	.	8ccn
.	.	8ddn
4G-	4r	8ee-
.	.	8ff
4E-	4cc	8gg-
.	.	8ee-
=62	=62	=62
4B-	8dd-	4ff
.	8cc	.
4d-	8b-	4f
.	8an	.
8G-	4b-	[2b-
8F	.	.
8E-	4f	.
8D-	.	.
=63	=63	=63
8E-	4g-	2b-]
8C	.	.
8D-	4e-	.
8E-	.	.
8F	4c	2an
8E-	.	.
8D-	4f	.
8C	.	.
=64	=64	=64
[2BB-	4d-	8b-
.	.	8an
.	4B-	8b-
.	.	8cc
8BB-]	4b-	8dd-
8C	.	8ee-
8D-	4b-	8ff
8BB-	.	8dd-
=65	=65	=65
8C	4b-	8ee-
8D-	.	8dd-
4E-	8an	8cc
.	8b-	8dd-
4AAn	4cc	8ee-
.	.	8ff
8BB-	4cc	8gg-
8C	.	8ee-
=66	=66	=66
8D-	4cc	2ff
8E-	.	.
8D-	8b-	.
8C	8cc	.
8BB-	4dd-	4r
8AA-	.	.
8GG-	4dd-	8bb-
8BB-	.	8ff
=67	=67	=67
4EE-	4dd-	8gg-
.	.	8aa-
4r	4B-	8gg-
.	.	8ff
2r	4c	8ee-
.	.	8dd-
.	4e-	8cc
.	.	8ee-
=68	=68	=68
8r	4e-	4an
8G-	.	.
8F	4An	4cc
8E-	.	.
8D-	4B-	4ff
8C	.	.
8BB-	4b-	4dd-
8D-	.	.
=69	=69	=69
4GG-	2b-	8ee-
.	.	8ff
4EE-	.	8gg-
.	.	8ee-
4FF	2an	8cc
.	.	8gg-
4F	.	8ff
.	.	8ee-
=70	=70	=70
8BB-	8b-	2dd-
8C	8f	.
8D-	2b-	.
8E-	.	.
8F	.	4cc
8G-	.	.
8A-	[4a-X	4ff
8F	.	.
=71	=71	=71
8G-	8a-]	2b-
8A-	8d-	.
8B-	2g-	.
8c	.	.
8d-	.	4a-
8e-	.	.
8d-	[4f	4dd-
8c	.	.
=72	=72	=72
8B-	4f]	[1g-
8A-	.	.
8G-	8e-	.
8F	8d-	.
8E-	4c	.
8F	.	.
8G-	4B-	.
8E-	.	.
=73	=73	=73
[1F	4An	8g-]
.	.	8f
.	2B-	8e-
.	.	8d-
.	.	8c
.	.	8d-
.	4A	8e-
.	.	8c
=74	=74	=74
1F_	8B-	8d-
.	8c	8e-
.	8d-	8f
.	8B-	8gn
.	8c	8an
.	8d-	8b-
.	8e-	8cc
.	8c	8a
=75	=75	=75
2F]	8d-	8b-
.	8e-	8cc
.	8f	8dd-
.	8gn	8b-
[2f	8an	8cc
.	8b-	8dd-
.	8cc	8ee-
.	8a	8cc
=76	=76	=76
1f_	8b-	8dd-
.	8cc	8ee-
.	8dd-	8ff
.	8b-	8ggn
.	8cc	8aan
.	8dd-	8bb-
.	8ee-	8ccc
.	8cc	8aa
=77	=77	=77
8f]	8ddn	[1bb-
8g-	8cc	.
8f	8dd	.
8e-	8ee-	.
8dn	8ff	.
8c	8gg-	.
8B-	8aa-	.
8d	8ff	.
=78	=78	=78
8E-	4gg-	1bb-_
8F	.	.
8G-	8ff	.
8A-	8ee-	.
8B-	4ddn	.
8c	.	.
8dn	4ff	.
8B-	.	.
*clefG2	*	*
=79	=79	=79
8g-	4b-	1bb-_
8f	.	.
8e-	8gg-	.
8f	8ff	.
8g-	4ee-	.
8a-	.	.
8b-	4dd-X	.
8g-	.	.
=80	=80	=80
8e-	2cc	4bb-]
8d-	.	.
8c	.	8aan
8B-	.	8bb-
*clefF4	*	*
8An	4r	4ccc
8Gn	.	.
8F	[4cc	[4ee-
8A	.	.
=81	=81	=81
8D-	4cc]	4ee-]
8G-X	.	.
8F	4b-	8dd-
8E-	.	8ee-
8D-	4r	4ff
8C	.	.
8BB-	4g-	8ee-
8C	.	8an
=82	=82	=82
8D-	4.f	4.b-
8C	.	.
8D-	.	.
8E-	8g-	8cc
8F	2c	4.an
8E-	.	.
8F	.	.
8FF	.	8b-
=83	=83	=83
1BB-	1dn;y	1b-;
==	==	==
*-	*-	*-
!!!AFR:  prelude
!!!EFL:  91/96
!!!END:  1994/02/17/
!!!VID:  1533756567 Bach, BWV 891-01
!!!AST:  Baroque
!!!OCY:  Deutschland
!!!ODT:  1742///
!!!PDT:  1801///
!!!EED:  Walter Hewlett
!!!ENC:  Walter Hewlett
!!!YOR:  Bach Gesellschaft Edition xiv
!!!AFT:  enhanced SCORE
!!!RDT:  2011/10/07/ by Andreas Kornstaedt using massScr2hmd
!!!SCA1: Thematisch-systematisches Verzeichnis der musikalischen Werke 
!!!SCA2: Johann Sebastian Bach: Bach-Werke-Verzeichnis (Schmieder)
!!!YEC1: Copyright 1994, 2000 Center for Computer Assisted Research 
!!!YEC2: in the Humanities
!!!YEM1: Rights to all derivative editions reserved.
!!!YEM2: Refer to licensing agreement for further details.
!!!YEN:  United States of America
!!!ref:  @{OTL}, @{SCT}
!!muse2ps: T^@{OTL} @{ONM} in @{OKY}^C^J.S. Bach\n@{SCT}-@{OMV}^
!!muse2ps: u^@{OPR@ENG}, @{OVM@ENG}^j
